public/images/icon-5.svg

<svg fill="none" height="32" viewBox="0 0 32 32" width="32" xmlns="http://www.w3.org/2000/svg"><g fill="#5e6b7e"><path clip-rule="evenodd" d="m21.0909.826973c6.3407 2.126547 10.9091 8.116297 10.9091 15.173027 0 7.0568-4.5684 13.0465-10.9091 15.1731l-2.3997.6821c-.2554.0726-.5094-.1192-.5094-.3847v-10.4307c-.8558.4951-1.8493.7784-2.9091.7784-3.2133 0-5.81815-2.6049-5.81815-5.8182s2.60485-5.8182 5.81815-5.8182c1.0598 0 2.0533.2833 2.9091.7784v-10.430643c0-.26553.254-.4573616.5094-.384756zm0 27.237227c4.701-1.9862 8-6.6399 8-12.0642 0-5.4242-3.299-10.0779-8-12.0641zm-2.9091-12.0662c-.0011-1.6057-1.3031-2.9071-2.9091-2.9071-1.6066 0-2.9091 1.3025-2.9091 2.9091s1.3025 2.9091 2.9091 2.9091c1.606 0 2.908-1.3014 2.9091-2.9071z" fill-rule="evenodd"/><path d="m12.6195 31.6422c.2443.0526.4714-.1363.4714-.3862v-2.17c0-.1869-.1299-.3482-.311-.3941-5.67287-1.4348-9.87081-6.5731-9.87081-12.6919 0-6.11875 4.19794-11.25705 9.87081-12.69189.1811-.04581.311-.20719.311-.394v-2.170093c0-.249855-.2271-.438736-.4714-.386197-7.21305 1.55143-12.6195 7.96545-12.6195 15.64218 0 7.6768 5.40645 14.0908 12.6195 15.6422z"/></g></svg>

<svg width="32" height="32" viewBox="0 0 32 32" fill="none" xmlns="http://www.w3.org/2000/svg">
<path fill-rule="evenodd" clip-rule="evenodd" d="M21.0909 0.826973C27.4316 2.95352 32 8.94327 32 16C32 23.0568 27.4316 29.0465 21.0909 31.1731L18.6912 31.8552C18.4358 31.9278 18.1818 31.736 18.1818 31.4705V21.0398C17.326 21.5349 16.3325 21.8182 15.2727 21.8182C12.0594 21.8182 9.45455 19.2133 9.45455 16C9.45455 12.7867 12.0594 10.1818 15.2727 10.1818C16.3325 10.1818 17.326 10.4651 18.1818 10.9602L18.1818 0.529557C18.1818 0.264027 18.4358 0.0721954 18.6912 0.144801L21.0909 0.826973ZM21.0909 28.0642C25.7919 26.078 29.0909 21.4243 29.0909 16C29.0909 10.5758 25.7919 5.9221 21.0909 3.9359L21.0909 28.0642ZM18.1818 15.998C18.1807 14.3923 16.8787 13.0909 15.2727 13.0909C13.6661 13.0909 12.3636 14.3934 12.3636 16C12.3636 17.6066 13.6661 18.9091 15.2727 18.9091C16.8787 18.9091 18.1807 17.6077 18.1818 16.002V15.998Z" fill="#5E6B7E"/>
<path d="M12.6195 31.6422C12.8638 31.6948 13.0909 31.5059 13.0909 31.256V29.086C13.0909 28.8991 12.961 28.7378 12.7799 28.6919C7.10703 27.2571 2.90909 22.1188 2.90909 16C2.90909 9.88125 7.10703 4.74295 12.7799 3.30811C12.961 3.2623 13.0909 3.10092 13.0909 2.91411V0.744017C13.0909 0.494162 12.8638 0.305281 12.6195 0.35782C5.40645 1.90925 0 8.32327 0 16C0 23.6768 5.40645 30.0908 12.6195 31.6422Z" fill="#5E6B7E"/>
</svg>
